X: 22029
T: Knackers Of Narin, The
R: reel
M: 4/4
K: Dmajor
D2 F2 A2 d2|DF F2 AFEF|D2 F2 A2 de|fded BAFE|
D2 F2 A2 d2|DF F2 AFEF|D2 F2 A2 de|fded BAFA|
B2 BF A2 FA|B2 BF AFEF|B2 BF AB de|fded BAFA|
B2 BF A2 FA|B2 BF AFEF|B2 BF AB de|fded BdAF|

